public/images/CountdownClock0.svg

<?xml version="1.0" standalone="no"?>
<!DOCTYPE svg PUBLIC "-//W3C//DTD SVG 20010904//EN"
 "http://www.w3.org/TR/2001/REC-SVG-20010904/DTD/svg10.dtd">
<svg version="1.0" xmlns="http://www.w3.org/2000/svg"
 width="840.000000pt" height="111.000000pt" viewBox="0 0 840.000000 111.000000"
 preserveAspectRatio="xMidYMid meet">

<g transform="translate(0.000000,111.000000) scale(0.100000,-0.100000)"
fill="#000000" stroke="none">
<path d="M447 873 c-19 -22 -119 -387 -115 -422 l3 -26 846 -3 c795 -2 848 -1
868 15 16 13 34 67 72 206 27 104 49 200 47 215 l-3 27 -851 3 c-801 2 -852 1
-867 -15z m1697 -12 c9 -14 -94 -383 -111 -403 -15 -17 -68 -18 -844 -18 -455
0 -830 4 -833 9 -8 13 94 384 112 404 14 16 67 17 843 17 487 0 830 -4 833 -9z"/>
<path d="M2302 872 c-17 -17 -41 -93 -104 -333 -19 -73 -20 -89 -9 -103 12
-14 94 -16 853 -16 l839 0 22 22 c31 32 134 413 116 434 -10 12 -139 14 -855
14 -804 0 -845 -1 -862 -18z m1698 -14 c0 -36 -101 -383 -116 -399 -17 -18
-45 -19 -845 -19 -455 0 -830 3 -833 8 -7 11 97 387 113 406 12 15 86 16 847
16 661 0 834 -3 834 -12z"/>
<path d="M4152 872 c-10 -10 -39 -100 -71 -219 -44 -167 -52 -205 -41 -218 11
-13 111 -15 854 -15 l843 0 20 23 c13 14 39 92 73 219 43 162 50 200 40 213
-11 13 -114 15 -856 15 -792 0 -845 -1 -862 -18z m1698 -19 c0 -44 -101 -389
-117 -400 -13 -10 -198 -13 -845 -13 -811 0 -828 0 -828 19 0 45 100 386 117
398 13 10 194 13 845 13 782 0 828 -1 828 -17z"/>
<path d="M6003 866 c-11 -13 -43 -112 -72 -221 -42 -156 -50 -199 -41 -211 10
-11 58 -14 269 -14 237 0 259 1 277 19 21 19 128 396 122 429 -3 15 -27 17
-270 20 l-266 2 -19 -24z m530 -3 c2 -5 -19 -95 -48 -202 -36 -130 -59 -199
-71 -208 -27 -19 -492 -19 -500 1 -8 22 95 389 113 404 19 13 498 18 506 5z"/>
<path d="M6686 871 c-26 -29 -127 -410 -115 -433 9 -17 28 -18 265 -18 144 0
263 4 273 10 10 5 23 22 29 37 24 61 103 375 100 396 -3 22 -3 22 -269 25
-251 2 -267 1 -283 -17z m527 -8 c3 -5 -18 -95 -47 -202 -37 -135 -58 -198
-71 -207 -15 -11 -71 -14 -256 -14 -148 0 -240 4 -244 10 -3 6 12 76 34 158
22 81 44 166 51 189 19 75 12 73 285 73 134 0 246 -3 248 -7z"/>
<path d="M7367 872 c-20 -22 -119 -383 -115 -420 l3 -27 261 -3 c238 -2 263
-1 282 15 15 13 35 71 72 208 28 104 50 201 48 215 l-3 25 -266 3 c-245 2
-267 1 -282 -16z m527 -10 c3 -5 -18 -94 -45 -198 -36 -134 -56 -194 -71 -206
-18 -16 -46 -18 -259 -18 -132 0 -240 4 -243 9 -9 14 94 383 111 404 15 15 40
17 259 17 134 0 245 -4 248 -8z"/>
<path d="M1520 350 c0 -5 5 -10 10 -10 6 0 10 -18 10 -41 0 -24 -4 -38 -10
-34 -5 3 -10 1 -10 -4 0 -6 14 -11 30 -11 17 0 30 5 30 11 0 5 -4 7 -10 4 -6
-4 -10 13 -10 44 0 44 -3 51 -20 51 -11 0 -20 -4 -20 -10z"/>
<path d="M1620 331 c0 -24 4 -28 19 -24 10 3 22 0 26 -7 10 -17 -15 -41 -36
-35 -11 4 -19 2 -19 -5 0 -7 13 -10 33 -8 28 3 32 6 32 33 0 23 -5 31 -22 33
-13 2 -23 10 -23 17 0 7 10 16 23 18 19 4 18 4 -5 6 -25 1 -28 -3 -28 -28z"/>
<path d="M1828 335 c-16 -35 0 -79 29 -83 25 -4 37 25 31 74 -4 40 -43 46 -60
9z m48 -12 c7 -27 -4 -56 -21 -55 -12 2 -19 47 -11 68 9 23 25 16 32 -13z"/>
<path d="M1937 353 c-10 -9 -8 -75 2 -91 26 -42 75 25 53 73 -11 23 -40 33
-55 18z m38 -46 c0 -40 -12 -51 -28 -26 -13 20 0 72 16 66 7 -2 12 -20 12 -40z"/>
<path d="M3370 350 c0 -5 5 -10 10 -10 6 0 10 -18 10 -41 0 -24 -4 -38 -10
-34 -5 3 -10 1 -10 -4 0 -6 14 -11 30 -11 17 0 30 5 30 11 0 5 -4 7 -10 4 -6
-4 -10 13 -10 44 0 44 -3 51 -20 51 -11 0 -20 -4 -20 -10z"/>
<path d="M3469 353 c-13 -77 -4 -105 29 -101 25 3 27 6 27 53 0 47 -2 50 -27
53 -16 2 -29 0 -29 -5z m44 -10 c9 -9 -13 -34 -24 -27 -14 8 -11 34 4 34 8 0
17 -3 20 -7z m2 -63 c0 -22 -29 -18 -33 3 -3 14 1 18 15 15 10 -2 18 -10 18
-18z"/>
<path d="M3678 335 c-16 -35 0 -79 29 -83 25 -4 37 25 31 74 -4 40 -43 46 -60
9z m48 -12 c7 -27 -4 -56 -21 -55 -12 2 -19 47 -11 68 9 23 25 16 32 -13z"/>
<path d="M3787 353 c-10 -9 -8 -75 2 -91 26 -42 75 25 53 73 -11 23 -40 33
-55 18z m38 -46 c0 -40 -12 -51 -28 -26 -13 20 0 72 16 66 7 -2 12 -20 12 -40z"/>
<path d="M5235 350 c-4 -7 2 -9 19 -4 21 5 26 3 26 -13 0 -11 -11 -30 -25 -43
-34 -32 -32 -40 10 -40 19 0 35 5 35 10 0 6 -10 10 -22 10 l-21 0 22 24 c29
31 24 60 -11 64 -14 2 -29 -2 -33 -8z"/>
<path d="M5340 350 c0 -5 5 -10 10 -10 6 0 10 -18 10 -41 0 -24 -4 -38 -10
-34 -5 3 -10 1 -10 -4 0 -6 14 -11 30 -11 17 0 30 5 30 11 0 5 -4 7 -10 4 -6
-4 -10 13 -10 44 0 44 -3 51 -20 51 -11 0 -20 -4 -20 -10z"/>
<path d="M5548 335 c-16 -35 0 -79 29 -83 25 -4 37 25 31 74 -4 40 -43 46 -60
9z m48 -12 c7 -27 -4 -56 -21 -55 -12 2 -19 47 -11 68 9 23 25 16 32 -13z"/>
<path d="M5657 353 c-10 -9 -8 -75 2 -91 26 -42 75 25 53 73 -11 23 -40 33
-55 18z m38 -46 c0 -40 -12 -51 -28 -26 -13 20 0 72 16 66 7 -2 12 -20 12 -40z"/>
<path d="M5915 350 c-4 -7 2 -9 19 -4 21 5 26 3 26 -13 0 -11 -11 -30 -25 -43
-34 -32 -32 -40 10 -40 19 0 35 5 35 10 0 6 -10 10 -22 10 l-21 0 22 24 c29
31 24 60 -11 64 -14 2 -29 -2 -33 -8z"/>
<path d="M6015 350 c-4 -7 2 -9 19 -4 21 5 26 3 26 -13 0 -11 -11 -30 -25 -43
-34 -32 -32 -40 10 -40 19 0 35 5 35 10 0 6 -10 10 -22 10 l-21 0 22 24 c29
31 24 60 -11 64 -14 2 -29 -2 -33 -8z"/>
<path d="M6228 335 c-16 -35 0 -79 29 -83 25 -4 37 25 31 74 -4 40 -43 46 -60
9z m48 -12 c7 -27 -4 -56 -21 -55 -12 2 -19 47 -11 68 9 23 25 16 32 -13z"/>
<path d="M6337 353 c-10 -9 -8 -75 2 -91 26 -42 75 25 53 73 -11 23 -40 33
-55 18z m38 -46 c0 -40 -12 -51 -28 -26 -13 20 0 72 16 66 7 -2 12 -20 12 -40z"/>
<path d="M6595 350 c-4 -7 2 -9 19 -4 21 5 26 3 26 -13 0 -11 -11 -30 -25 -43
-34 -32 -32 -40 10 -40 19 0 35 5 35 10 0 6 -10 10 -22 10 l-21 0 22 24 c29
31 24 60 -11 64 -14 2 -29 -2 -33 -8z"/>
<path d="M6700 352 c0 -6 9 -8 20 -5 22 6 29 -22 8 -31 -9 -3 -8 -8 5 -16 24
-16 5 -40 -26 -33 -17 5 -19 3 -11 -6 7 -7 22 -11 35 -9 22 3 24 8 24 53 0 47
-2 50 -27 53 -16 2 -28 -1 -28 -6z"/>
<path d="M6908 335 c-16 -35 0 -79 29 -83 25 -4 37 25 31 74 -4 40 -43 46 -60
9z m48 -12 c7 -27 -4 -56 -21 -55 -12 2 -19 47 -11 68 9 23 25 16 32 -13z"/>
<path d="M7017 353 c-10 -9 -8 -75 2 -91 26 -42 75 25 53 73 -11 23 -40 33
-55 18z m38 -46 c0 -40 -12 -51 -28 -26 -13 20 0 72 16 66 7 -2 12 -20 12 -40z"/>
<path d="M7298 335 c-16 -35 0 -79 29 -83 25 -4 37 25 31 74 -4 40 -43 46 -60
9z m48 -12 c7 -27 -4 -56 -21 -55 -12 2 -19 47 -11 68 9 23 25 16 32 -13z"/>
<path d="M7398 335 c-16 -35 0 -79 29 -83 25 -4 37 25 31 74 -4 40 -43 46 -60
9z m48 -12 c7 -27 -4 -56 -21 -55 -12 2 -19 47 -11 68 9 23 25 16 32 -13z"/>
<path d="M7608 335 c-16 -35 0 -79 29 -83 25 -4 37 25 31 74 -4 40 -43 46 -60
9z m48 -12 c7 -27 -4 -56 -21 -55 -12 2 -19 47 -11 68 9 23 25 16 32 -13z"/>
<path d="M7717 353 c-10 -9 -8 -75 2 -91 26 -42 75 25 53 73 -11 23 -40 33
-55 18z m38 -46 c0 -40 -12 -51 -28 -26 -13 20 0 72 16 66 7 -2 12 -20 12 -40z"/>
<path d="M1740 315 c0 -8 7 -15 15 -15 8 0 15 7 15 15 0 8 -7 15 -15 15 -8 0
-15 -7 -15 -15z"/>
<path d="M3590 315 c0 -8 7 -15 15 -15 8 0 15 7 15 15 0 8 -7 15 -15 15 -8 0
-15 -7 -15 -15z"/>
<path d="M5460 315 c0 -8 7 -15 15 -15 8 0 15 7 15 15 0 8 -7 15 -15 15 -8 0
-15 -7 -15 -15z"/>
<path d="M6140 315 c0 -8 7 -15 15 -15 8 0 15 7 15 15 0 8 -7 15 -15 15 -8 0
-15 -7 -15 -15z"/>
<path d="M6820 315 c0 -8 7 -15 15 -15 8 0 15 7 15 15 0 8 -7 15 -15 15 -8 0
-15 -7 -15 -15z"/>
<path d="M7520 315 c0 -8 7 -15 15 -15 8 0 15 7 15 15 0 8 -7 15 -15 15 -8 0
-15 -7 -15 -15z"/>
<path d="M1740 265 c0 -8 7 -15 15 -15 8 0 15 7 15 15 0 8 -7 15 -15 15 -8 0
-15 -7 -15 -15z"/>
<path d="M3590 265 c0 -8 7 -15 15 -15 8 0 15 7 15 15 0 8 -7 15 -15 15 -8 0
-15 -7 -15 -15z"/>
<path d="M5460 265 c0 -8 7 -15 15 -15 8 0 15 7 15 15 0 8 -7 15 -15 15 -8 0
-15 -7 -15 -15z"/>
<path d="M6140 265 c0 -8 7 -15 15 -15 8 0 15 7 15 15 0 8 -7 15 -15 15 -8 0
-15 -7 -15 -15z"/>
<path d="M6820 265 c0 -8 7 -15 15 -15 8 0 15 7 15 15 0 8 -7 15 -15 15 -8 0
-15 -7 -15 -15z"/>
<path d="M7520 265 c0 -8 7 -15 15 -15 8 0 15 7 15 15 0 8 -7 15 -15 15 -8 0
-15 -7 -15 -15z"/>
</g>
</svg>

<?xml version="1.0" encoding="UTF-8" standalone="no"?>
<!DOCTYPE svg PUBLIC "-//W3C//DTD SVG 1.1//EN" "http://www.w3.org/Graphics/SVG/1.1/DTD/svg11.dtd">
<svg width="100%" height="100%" viewBox="0 0 840 111" version="1.1" xmlns="http://www.w3.org/2000/svg" xmlns:xlink="http://www.w3.org/1999/xlink" xml:space="preserve" xmlns:serif="http://www.serif.com/" style="fill-rule:evenodd;clip-rule:evenodd;stroke-linejoin:round;stroke-miterlimit:2;">
    <g transform="matrix(0.1,0,0,-0.1,0,111)">
        <path d="M447,873C428,851 328,486 332,451L335,425L1181,422C1976,420 2029,421 2049,437C2065,450 2083,504 2121,643C2148,747 2170,843 2168,858L2165,885L1314,888C513,890 462,889 447,873ZM2144,861C2153,847 2050,478 2033,458C2018,441 1965,440 1189,440C734,440 359,444 356,449C348,462 450,833 468,853C482,869 535,870 1311,870C1798,870 2141,866 2144,861Z" style="fill-rule:nonzero;"/>
        <path d="M2302,872C2285,855 2261,779 2198,539C2179,466 2178,450 2189,436C2201,422 2283,420 3042,420L3881,420L3903,442C3934,474 4037,855 4019,876C4009,888 3880,890 3164,890C2360,890 2319,889 2302,872ZM4000,858C4000,822 3899,475 3884,459C3867,441 3839,440 3039,440C2584,440 2209,443 2206,448C2199,459 2303,835 2319,854C2331,869 2405,870 3166,870C3827,870 4000,867 4000,858Z" style="fill-rule:nonzero;"/>
        <path d="M4152,872C4142,862 4113,772 4081,653C4037,486 4029,448 4040,435C4051,422 4151,420 4894,420L5737,420L5757,443C5770,457 5796,535 5830,662C5873,824 5880,862 5870,875C5859,888 5756,890 5014,890C4222,890 4169,889 4152,872ZM5850,853C5850,809 5749,464 5733,453C5720,443 5535,440 4888,440C4077,440 4060,440 4060,459C4060,504 4160,845 4177,857C4190,867 4371,870 5022,870C5804,870 5850,869 5850,853Z" style="fill-rule:nonzero;"/>
        <path d="M6003,866C5992,853 5960,754 5931,645C5889,489 5881,446 5890,434C5900,423 5948,420 6159,420C6396,420 6418,421 6436,439C6457,458 6564,835 6558,868C6555,883 6531,885 6288,888L6022,890L6003,866ZM6533,863C6535,858 6514,768 6485,661C6449,531 6426,462 6414,453C6387,434 5922,434 5914,454C5906,476 6009,843 6027,858C6046,871 6525,876 6533,863Z" style="fill-rule:nonzero;"/>
        <path d="M6686,871C6660,842 6559,461 6571,438C6580,421 6599,420 6836,420C6980,420 7099,424 7109,430C7119,435 7132,452 7138,467C7162,528 7241,842 7238,863C7235,885 7235,885 6969,888C6718,890 6702,889 6686,871ZM7213,863C7216,858 7195,768 7166,661C7129,526 7108,463 7095,454C7080,443 7024,440 6839,440C6691,440 6599,444 6595,450C6592,456 6607,526 6629,608C6651,689 6673,774 6680,797C6699,872 6692,870 6965,870C7099,870 7211,867 7213,863Z" style="fill-rule:nonzero;"/>
        <path d="M7367,872C7347,850 7248,489 7252,452L7255,425L7516,422C7754,420 7779,421 7798,437C7813,450 7833,508 7870,645C7898,749 7920,846 7918,860L7915,885L7649,888C7404,890 7382,889 7367,872ZM7894,862C7897,857 7876,768 7849,664C7813,530 7793,470 7778,458C7760,442 7732,440 7519,440C7387,440 7279,444 7276,449C7267,463 7370,832 7387,853C7402,868 7427,870 7646,870C7780,870 7891,866 7894,862Z" style="fill-rule:nonzero;"/>
        <path d="M1520,350C1520,345 1525,340 1530,340C1536,340 1540,322 1540,299C1540,275 1536,261 1530,265C1525,268 1520,266 1520,261C1520,255 1534,250 1550,250C1567,250 1580,255 1580,261C1580,266 1576,268 1570,265C1564,261 1560,278 1560,309C1560,353 1557,360 1540,360C1529,360 1520,356 1520,350Z" style="fill-rule:nonzero;"/>
        <path d="M1620,331C1620,307 1624,303 1639,307C1649,310 1661,307 1665,300C1675,283 1650,259 1629,265C1618,269 1610,267 1610,260C1610,253 1623,250 1643,252C1671,255 1675,258 1675,285C1675,308 1670,316 1653,318C1640,320 1630,328 1630,335C1630,342 1640,351 1653,353C1672,357 1671,357 1648,359C1623,360 1620,356 1620,331Z" style="fill-rule:nonzero;"/>
        <path d="M1828,335C1812,300 1828,256 1857,252C1882,248 1894,277 1888,326C1884,366 1845,372 1828,335ZM1876,323C1883,296 1872,267 1855,268C1843,270 1836,315 1844,336C1853,359 1869,352 1876,323Z" style="fill-rule:nonzero;"/>
        <path d="M1937,353C1927,344 1929,278 1939,262C1965,220 2014,287 1992,335C1981,358 1952,368 1937,353ZM1975,307C1975,267 1963,256 1947,281C1934,301 1947,353 1963,347C1970,345 1975,327 1975,307Z" style="fill-rule:nonzero;"/>
        <path d="M3370,350C3370,345 3375,340 3380,340C3386,340 3390,322 3390,299C3390,275 3386,261 3380,265C3375,268 3370,266 3370,261C3370,255 3384,250 3400,250C3417,250 3430,255 3430,261C3430,266 3426,268 3420,265C3414,261 3410,278 3410,309C3410,353 3407,360 3390,360C3379,360 3370,356 3370,350Z" style="fill-rule:nonzero;"/>
        <path d="M3469,353C3456,276 3465,248 3498,252C3523,255 3525,258 3525,305C3525,352 3523,355 3498,358C3482,360 3469,358 3469,353ZM3513,343C3522,334 3500,309 3489,316C3475,324 3478,350 3493,350C3501,350 3510,347 3513,343ZM3515,280C3515,258 3486,262 3482,283C3479,297 3483,301 3497,298C3507,296 3515,288 3515,280Z" style="fill-rule:nonzero;"/>
        <path d="M3678,335C3662,300 3678,256 3707,252C3732,248 3744,277 3738,326C3734,366 3695,372 3678,335ZM3726,323C3733,296 3722,267 3705,268C3693,270 3686,315 3694,336C3703,359 3719,352 3726,323Z" style="fill-rule:nonzero;"/>
        <path d="M3787,353C3777,344 3779,278 3789,262C3815,220 3864,287 3842,335C3831,358 3802,368 3787,353ZM3825,307C3825,267 3813,256 3797,281C3784,301 3797,353 3813,347C3820,345 3825,327 3825,307Z" style="fill-rule:nonzero;"/>
        <path d="M5235,350C5231,343 5237,341 5254,346C5275,351 5280,349 5280,333C5280,322 5269,303 5255,290C5221,258 5223,250 5265,250C5284,250 5300,255 5300,260C5300,266 5290,270 5278,270L5257,270L5279,294C5308,325 5303,354 5268,358C5254,360 5239,356 5235,350Z" style="fill-rule:nonzero;"/>
        <path d="M5340,350C5340,345 5345,340 5350,340C5356,340 5360,322 5360,299C5360,275 5356,261 5350,265C5345,268 5340,266 5340,261C5340,255 5354,250 5370,250C5387,250 5400,255 5400,261C5400,266 5396,268 5390,265C5384,261 5380,278 5380,309C5380,353 5377,360 5360,360C5349,360 5340,356 5340,350Z" style="fill-rule:nonzero;"/>
        <path d="M5548,335C5532,300 5548,256 5577,252C5602,248 5614,277 5608,326C5604,366 5565,372 5548,335ZM5596,323C5603,296 5592,267 5575,268C5563,270 5556,315 5564,336C5573,359 5589,352 5596,323Z" style="fill-rule:nonzero;"/>
        <path d="M5657,353C5647,344 5649,278 5659,262C5685,220 5734,287 5712,335C5701,358 5672,368 5657,353ZM5695,307C5695,267 5683,256 5667,281C5654,301 5667,353 5683,347C5690,345 5695,327 5695,307Z" style="fill-rule:nonzero;"/>
        <path d="M5915,350C5911,343 5917,341 5934,346C5955,351 5960,349 5960,333C5960,322 5949,303 5935,290C5901,258 5903,250 5945,250C5964,250 5980,255 5980,260C5980,266 5970,270 5958,270L5937,270L5959,294C5988,325 5983,354 5948,358C5934,360 5919,356 5915,350Z" style="fill-rule:nonzero;"/>
        <path d="M6015,350C6011,343 6017,341 6034,346C6055,351 6060,349 6060,333C6060,322 6049,303 6035,290C6001,258 6003,250 6045,250C6064,250 6080,255 6080,260C6080,266 6070,270 6058,270L6037,270L6059,294C6088,325 6083,354 6048,358C6034,360 6019,356 6015,350Z" style="fill-rule:nonzero;"/>
        <path d="M6228,335C6212,300 6228,256 6257,252C6282,248 6294,277 6288,326C6284,366 6245,372 6228,335ZM6276,323C6283,296 6272,267 6255,268C6243,270 6236,315 6244,336C6253,359 6269,352 6276,323Z" style="fill-rule:nonzero;"/>
        <path d="M6337,353C6327,344 6329,278 6339,262C6365,220 6414,287 6392,335C6381,358 6352,368 6337,353ZM6375,307C6375,267 6363,256 6347,281C6334,301 6347,353 6363,347C6370,345 6375,327 6375,307Z" style="fill-rule:nonzero;"/>
        <path d="M6595,350C6591,343 6597,341 6614,346C6635,351 6640,349 6640,333C6640,322 6629,303 6615,290C6581,258 6583,250 6625,250C6644,250 6660,255 6660,260C6660,266 6650,270 6638,270L6617,270L6639,294C6668,325 6663,354 6628,358C6614,360 6599,356 6595,350Z" style="fill-rule:nonzero;"/>
        <path d="M6700,352C6700,346 6709,344 6720,347C6742,353 6749,325 6728,316C6719,313 6720,308 6733,300C6757,284 6738,260 6707,267C6690,272 6688,270 6696,261C6703,254 6718,250 6731,252C6753,255 6755,260 6755,305C6755,352 6753,355 6728,358C6712,360 6700,357 6700,352Z" style="fill-rule:nonzero;"/>
        <path d="M6908,335C6892,300 6908,256 6937,252C6962,248 6974,277 6968,326C6964,366 6925,372 6908,335ZM6956,323C6963,296 6952,267 6935,268C6923,270 6916,315 6924,336C6933,359 6949,352 6956,323Z" style="fill-rule:nonzero;"/>
        <path d="M7017,353C7007,344 7009,278 7019,262C7045,220 7094,287 7072,335C7061,358 7032,368 7017,353ZM7055,307C7055,267 7043,256 7027,281C7014,301 7027,353 7043,347C7050,345 7055,327 7055,307Z" style="fill-rule:nonzero;"/>
        <path d="M7298,335C7282,300 7298,256 7327,252C7352,248 7364,277 7358,326C7354,366 7315,372 7298,335ZM7346,323C7353,296 7342,267 7325,268C7313,270 7306,315 7314,336C7323,359 7339,352 7346,323Z" style="fill-rule:nonzero;"/>
        <path d="M7398,335C7382,300 7398,256 7427,252C7452,248 7464,277 7458,326C7454,366 7415,372 7398,335ZM7446,323C7453,296 7442,267 7425,268C7413,270 7406,315 7414,336C7423,359 7439,352 7446,323Z" style="fill-rule:nonzero;"/>
        <path d="M7608,335C7592,300 7608,256 7637,252C7662,248 7674,277 7668,326C7664,366 7625,372 7608,335ZM7656,323C7663,296 7652,267 7635,268C7623,270 7616,315 7624,336C7633,359 7649,352 7656,323Z" style="fill-rule:nonzero;"/>
        <path d="M7717,353C7707,344 7709,278 7719,262C7745,220 7794,287 7772,335C7761,358 7732,368 7717,353ZM7755,307C7755,267 7743,256 7727,281C7714,301 7727,353 7743,347C7750,345 7755,327 7755,307Z" style="fill-rule:nonzero;"/>
        <path d="M1740,315C1740,307 1747,300 1755,300C1763,300 1770,307 1770,315C1770,323 1763,330 1755,330C1747,330 1740,323 1740,315Z" style="fill-rule:nonzero;"/>
        <path d="M3590,315C3590,307 3597,300 3605,300C3613,300 3620,307 3620,315C3620,323 3613,330 3605,330C3597,330 3590,323 3590,315Z" style="fill-rule:nonzero;"/>
        <path d="M5460,315C5460,307 5467,300 5475,300C5483,300 5490,307 5490,315C5490,323 5483,330 5475,330C5467,330 5460,323 5460,315Z" style="fill-rule:nonzero;"/>
        <path d="M6140,315C6140,307 6147,300 6155,300C6163,300 6170,307 6170,315C6170,323 6163,330 6155,330C6147,330 6140,323 6140,315Z" style="fill-rule:nonzero;"/>
        <path d="M6820,315C6820,307 6827,300 6835,300C6843,300 6850,307 6850,315C6850,323 6843,330 6835,330C6827,330 6820,323 6820,315Z" style="fill-rule:nonzero;"/>
        <path d="M7520,315C7520,307 7527,300 7535,300C7543,300 7550,307 7550,315C7550,323 7543,330 7535,330C7527,330 7520,323 7520,315Z" style="fill-rule:nonzero;"/>
        <path d="M1740,265C1740,257 1747,250 1755,250C1763,250 1770,257 1770,265C1770,273 1763,280 1755,280C1747,280 1740,273 1740,265Z" style="fill-rule:nonzero;"/>
        <path d="M3590,265C3590,257 3597,250 3605,250C3613,250 3620,257 3620,265C3620,273 3613,280 3605,280C3597,280 3590,273 3590,265Z" style="fill-rule:nonzero;"/>
        <path d="M5460,265C5460,257 5467,250 5475,250C5483,250 5490,257 5490,265C5490,273 5483,280 5475,280C5467,280 5460,273 5460,265Z" style="fill-rule:nonzero;"/>
        <path d="M6140,265C6140,257 6147,250 6155,250C6163,250 6170,257 6170,265C6170,273 6163,280 6155,280C6147,280 6140,273 6140,265Z" style="fill-rule:nonzero;"/>
        <path d="M6820,265C6820,257 6827,250 6835,250C6843,250 6850,257 6850,265C6850,273 6843,280 6835,280C6827,280 6820,273 6820,265Z" style="fill-rule:nonzero;"/>
        <path d="M7520,265C7520,257 7527,250 7535,250C7543,250 7550,257 7550,265C7550,273 7543,280 7535,280C7527,280 7520,273 7520,265Z" style="fill-rule:nonzero;"/>
    </g>
</svg>
